X: 140050
T: The HUMOURS OF COMER
Q: "Irish Jig."
R: Jig.
%R: jig
B: James Kerr "Merry Melodies" v.1 p.40 s.0 #50
Z: 2016 John Chambers <jc:trillian.mit.edu>
M: 6/8
L: 1/8
K: G
vG/F/ |\
EFE EFA | BcB uB2uc | ded dcB | ABG FED |\
EFE EFA | BcB uB2uc | dcB AGF | E3  E2 |]
ud |\
eBe eBe | efg uf2ue | ded dcB | ABG FED |\
eBe eBe | efg  f2e  | dcB AGF | E3  E2 |]

%%sep 1 1 500
%%sep 1 1 500

